X:550
T: Jiemeimen yaojuewu
N: C1969
O: China,Hunan Liuyang
S: I, 517]
R: Xiaodiao]
M: 2/4
L: 1/16
K: C
c3dede2 | d2d2z2e2 | c2e2dcA2 | G2EDG4 |
G2EDG2A2 | c3dede2 | c3edcA2 | GAEDG4 |
G2EDG3A | g2e2d2c2 | E3GA2c2 | G2EDG4 |
c2G2A2c2 | AcAGE2D2 | G2AcGAGE | D8 |
e2edcdeg | d2d2z2c2 | c2G2A2c2 | AcAGE3G |
AcdedcA2 | G4z4

@@@ Tune index: 7105
